tools/download-figma-icons/icons/outlined-large/hot-water-bottle.svg

<svg xmlns="http://www.w3.org/2000/svg" width="64" height="64" fill="none" viewBox="0 0 64 64"><path fill="currentColor" d="m47.36 19.87-7.08-4.96 2.21-6.62c.25-.76.12-1.6-.34-2.25A2.52 2.52 0 0 0 40.12 5h-3.11c0-2.76-2.24-5-5-5s-5 2.24-5 5H23.9c-.8 0-1.56.39-2.03 1.04s-.6 1.49-.34 2.25l2.21 6.62-7.16 5.01a9.44 9.44 0 0 0-3.56 7.42V57.5c0 3.58 2.92 6.5 6.5 6.5h25c3.58 0 6.5-2.92 6.5-6.5V27.34c0-2.9-1.3-5.61-3.64-7.48zM32 3c1.1 0 2 .9 2 2h-4c0-1.1.9-2 2-2m-.5 5h7.92l-2 6H26.58l-2-6zM48 57.5c0 1.93-1.57 3.5-3.5 3.5h-25c-1.93 0-3.5-1.57-3.5-3.5V27.34c0-1.99.89-3.83 2.36-5.02l7.61-5.33h12.05l7.53 5.27a6.47 6.47 0 0 1 2.44 5.08V57.5z"/></svg>

<svg width="64" height="64" viewBox="0 0 64 64" fill="none" xmlns="http://www.w3.org/2000/svg">
<path d="M47.36 19.87L40.28 14.91L42.49 8.29C42.74 7.53 42.61 6.69 42.15 6.04C41.68 5.39 40.92 5 40.12 5H37.01C37.01 2.24 34.77 0 32.01 0C29.25 0 27.01 2.24 27.01 5H23.9C23.1 5 22.34 5.39 21.87 6.04C21.4 6.69 21.27 7.53 21.53 8.29L23.74 14.91L16.58 19.92C14.31 21.73 13.02 24.44 13.02 27.34V57.5C13.02 61.08 15.94 64 19.52 64H44.52C48.1 64 51.02 61.08 51.02 57.5V27.34C51.02 24.44 49.72 21.73 47.38 19.86L47.36 19.87ZM32 3C33.1 3 34 3.9 34 5H30C30 3.9 30.9 3 32 3ZM31.5 8H39.42L37.42 14H26.58L24.58 8H31.5ZM48 57.5C48 59.43 46.43 61 44.5 61H19.5C17.57 61 16 59.43 16 57.5V27.34C16 25.35 16.89 23.51 18.36 22.32L25.97 16.99H38.02L45.55 22.26C47.1 23.5 47.99 25.35 47.99 27.34V57.5H48Z" fill="black"/>
</svg>
